X:1
T:Title
%%score { 1 | 2 }
L:1/8
M:4/8
K:Ab
V:1 treble nm="Grand Piano"
V:2 bass 
V:1
 z2 z[Q:1/4=80] [CE] | [CE]cBc | [CA]GFF | [CE]cBA | B3 E | [CE]cBc | [Fe][Fd][Fc][DFB] | %7
 [CEA][EAc][DGB][EGc] |[M:3/8] [CA]3 |[M:1/8] e |[M:2/4] ef ee | ef ee | ec Ac | [GB]3 [DE] | %14
 [CE]c dc | Bc AF | Ec BG |[M:3/8] [CA]3 |] %18
V:2
 z2 z [A,,A,] | [A,,A,][A,E][A,D][A,E] | [A,,A,][A,E][A,D][A,D] | [A,,A,][A,E][F,A,=D][F,A,D] | %4
 [E,G,E]3 [E,G,D] | [A,,A,][A,E][A,D][A,E] | [D,A,][D,A,][D,A,]D, | E,E,E,E, |[M:3/8] A,,3 | %9
[M:1/8][K:treble] [A,CA] |[M:2/4] [A,CA][A,DA] [A,CA][A,CA] | [A,CA][A,DA] [A,CA][A,CA] | %12
 [A,CA][A,EA] [CE][A,EA] | [E,E]3 [E,G,] | [A,,A,][K:treble][A,E] [A,F][K:bass][A,E] | %15
 [E,G,D][E,G,E] [F,A,C][D,A,D] | [E,A,C][E,A,E] [E,G,D][E,B,D] |[M:3/8] [A,,A,]3 |] %18

